X: 41486
T: Tyrol
R: polka
M: 2/4
K: Gmajor
gB gf/e/|e/d/d/^c/ d2|d/^c/A Ae|d/B/G Gd|
gB gf/e/|e/d/d/^c/ d2|d/^c/ A2 (3def|gg gz||
G/B/A/c/ B/d/c/e/|dg Be|Aa/g/ f/e/d/c/|dd d/^c/B/A/|
G/B/A/c/ B/d/c/e/|dg Be|Aa/g/ f/d/e/f/|gg gz||

